!!!COM:      Bach, Johann Sebastian
!!!CDT:      1685/03/31/-1750/07/28/
!!!OPR@@GER: Das wohltemperirte Clavier
!!!OVM@@GER: Band II
!!!OPR@ENG:  Well-Tempered Clavier
!!!OVM@ENG:  Book II
!!!OTL:      Prelude
!!!OKY:      G-sharp minor
!!!ONM:      no. 18
!!!SCT:      BWV 887
!!!OMV:      1
**kern	**kern	**kern	**kern
*>[A,A,B,B]	*>[A,A,B,B]	*>[A,A,B,B]	*>[A,A,B,B]
*>norep[A,B]	*>norep[A,B]	*>norep[A,B]	*>norep[A,B]
*>A	*>A	*>A	*>A
*clefF4	*	*	*clefG2
*k[f#c#g#d#a#]	*	*	*k[f#c#g#d#a#]
*g#:	*	*	*g#:
*M4/4	*	*	*M4/4
*met(c)	*	*	*met(c)
*MM72	*MM72	*MM72	*MM72
=1-	=1-	=1-	=1-
4G# 4B 4d#	1ryy	1ryy	16g#
.	.	.	16a#
.	.	.	16b
.	.	.	16cc#
4r	.	.	16dd#
.	.	.	16b
.	.	.	16a#
.	.	.	16g#
4G# 4A# 4c#	.	.	16f##
.	.	.	16g#
.	.	.	16a#
.	.	.	16e
16r	.	.	16d#
16c#	.	.	16r
16B	.	.	8r
16A#	.	.	.
=2	=2	=2	=2
*	*	*staff:14	*
*	*	*clefG2	*
*	*	*k[f#c#g#d#a#]	*
16G#	1ryy	8ryy	8r
16d#	.	.	.
16G#	.	8g#	8b
16d#	.	.	.
.	.	8g#Q	8bQ
16F##	.	4a#	4cc#
16d#	.	.	.
16F##	.	.	.
16d#	.	.	.
16G#	.	8ryy	8r
16d#	.	.	.
16G#	.	8g#	8b
16d#	.	.	.
.	.	8g#Q	8bQ
16D#	.	4f##	4a#
16d#	.	.	.
16D#	.	.	.
16d#	.	.	.
=3	=3	=3	=3
4G# 4B 4d#	1ryy	1ryy	16g#
.	.	.	16a#
.	.	.	16b
.	.	.	16cc#
4r	.	.	16dd#
.	.	.	16b
.	.	.	16a#
.	.	.	16g#
4G# 4A# 4c#	.	.	16f##
.	.	.	16g#
.	.	.	16a#
.	.	.	16e
16r	.	.	16d#
16c#	.	.	16r
16B	.	.	8r
16A#	.	.	.
=4	=4	=4	=4
*	*	*staff:12	*
16G#	1ryy	8ryy	8r
16d#	.	.	.
16G#	.	8b	8gg#
16d#	.	.	.
.	.	8bQ	8gg#Q
16F##	.	4cc#	4aa#
16d#	.	.	.
16F##	.	.	.
16d#	.	.	.
16G#	.	8ryy	8r
16d#	.	.	.
16G#	.	8b	8gg#
16d#	.	.	.
.	.	8bQ	8gg#Q
16D#	.	4a#	4ff##
16d#	.	.	.
16D#	.	.	.
16d#	.	.	.
=5	=5	=5	=5
16G#	1ryy	8ryy	8r
16d#	.	.	.
16G#	.	16g#	16b
16d#	.	16f##	16a#
16F#X	.	8g#	8b
16d#	.	.	.
16F#	.	8b	8gg#
16d#	.	.	.
16E#	.	8ryy	8r
16c#	.	.	.
16E#	.	8g#	8b
16c#	.	.	.
16C#	.	8ryy	8r
16c#	.	.	.
16C#	.	8e#	16a#
16c#	.	.	16g#
=6	=6	=6	=6
16F#	1ryy	8ryy	8r
16c#	.	.	.
16F#	.	16f#	16a#
16c#	.	16e#	16g#
16E#	.	8f#	8a#
16c#	.	.	.
16E#	.	8a#	8ff#
16c#	.	.	.
16D#	.	8ryy	8r
16B	.	.	.
16D#	.	8f#	8a#
16B	.	.	.
16BB	.	8ryy	8r
16B	.	.	.
16BB	.	8d#	16g#
16B	.	.	16f#
=7	=7	=7	=7
16E#	1ryy	8ryy	8r
16B	.	.	.
16E#	.	16c##	16g#
16B	.	16d#	16f#
16D#	.	8e#	8g#
16B	.	.	.
16D#	.	8g#	8ee#X
16B	.	.	.
16C##	.	8ryy	8r
16A#	.	.	.
16C##	.	8e#X	8g#
16A#	.	.	.
16AA#	.	8ryy	8r
16A#	.	.	.
16AA#	.	8c##	16f#
16A#	.	.	16e#X
=8	=8	=8	=8
16D#	1ryy	4d#	4f#
16F#	.	.	.
16G#	.	.	.
16A#	.	.	.
8B	.	2.ryy	16r
.	.	.	16a#
8D#	.	.	16g#
.	.	.	16f#
8C##	.	.	16e#
.	.	.	16d#
8B	.	.	16e#
.	.	.	16g#
8A#	.	.	16f##
.	.	.	16e#
8C#X	.	.	16f##
.	.	.	16a#
=9	=9	=9	=9
16BB#	1ryy	1ryy	8a#
16D#	.	.	.
16E#	.	.	8g#
16F##	.	.	.
8G#	.	.	16r
.	.	.	16f#
8BBn	.	.	16en
.	.	.	16d#
8AA#	.	.	16c#
.	.	.	16B#
8F##X	.	.	16c#
.	.	.	16e
8F#X	.	.	16d#
.	.	.	16c#
8AAn	.	.	16d#
.	.	.	16f#
=10	=10	=10	=10
16GG#	1ryy	1ryy	8f#
16BB#	.	.	.
16C#	.	.	8e
16D#	.	.	.
8E	.	.	16r
.	.	.	16d#
8GG#	.	.	16c#
.	.	.	16Bn
8FF##	.	.	16A#
.	.	.	16G#
8E	.	.	16A#
.	.	.	16c#
8D#	.	.	16B#
.	.	.	16A#
8FF#X	.	.	16B#
.	.	.	16d#
=11	=11	=11	=11
8EE#	1ryy	1ryy	16G#
.	.	.	16F##
8Dn	.	.	16G#
.	.	.	16Bn
8C#	.	.	16A#
.	.	.	16G#
8EEn	.	.	16A#
.	.	.	16c#
8DD#	.	.	16F##X
.	.	.	16e
8EE#	.	.	16d#
.	.	.	16c#
8FF##	.	.	16a#
.	.	.	16c#
8DD#	.	.	16a#
.	.	.	16c#
=12	=12	=12	=12
8GG#	1ryy	1ryy	16B#
.	.	.	16an
8AA#	.	.	16g#
.	.	.	16f#
8BB#	.	.	16dd#
.	.	.	16f#
8GG#	.	.	16dd#
.	.	.	16f#
8C#	.	.	16e#
.	.	.	16dn
8D#	.	.	16c#
.	.	.	16Bn
8E#	.	.	16g#
.	.	.	16B
8C#	.	.	16g#
.	.	.	16B
=13	=13	=13	=13
8F#	1ryy	1ryy	16A#
.	.	.	16gn
8G#	.	.	16f#
.	.	.	16e
8A#	.	.	16cc#
.	.	.	16e
8F#	.	.	16cc#
.	.	.	16e
8B	.	.	16d#
.	.	.	16f#
8A#	.	.	16g#
.	.	.	16a#
8G#	.	.	16b
.	.	.	16f#
8F#	.	.	16e#
.	.	.	16d#
=14	=14	=14	=14
8E#	1ryy	1ryy	16c##
.	.	.	16b
8G#	.	.	16a#
.	.	.	16g#
8C##	.	.	16ee#
.	.	.	16g#
8AA#	.	.	16ee#
.	.	.	16g#
8D#	.	.	16f#
.	.	.	16a#
8C#X	.	.	16dd#
.	.	.	16ee#X
8BB#	.	.	16ff#
.	.	.	16dd#
8AA#	.	.	16b#
.	.	.	16dd#
=15	=15	=15	=15
8BB#	1ryy	1ryy	16g##
.	.	.	16ff#
8D#	.	.	16ee#
.	.	.	16dd#
8GG##	.	.	16bb#
.	.	.	16dd#
8EE#	.	.	16bb#
.	.	.	16dd#
8AA#	.	.	16cc##
.	.	.	16dd#
8r	.	.	16ee#X
.	.	.	16aa#
*clefG2	*	*	*
16r	.	.	16a#
16g#	.	.	16r
16f#	.	.	8r
16e#X	.	.	.
=16	=16	=16	=16
*	*	*staff:4	*
16d#	1ryy	4ryy	16r
16e#	.	.	16cc##
16f#	.	.	16dd#
16g#	.	.	16ee#
16a#	.	8ryy	32ff#
.	.	.	32ee#
16f#	.	.	16dd#
16e#X	.	8gg#	8bb
16d#	.	.	.
16c##	.	8gg#	8bb
16d#	.	.	.
16e#	.	8cc##	8aa#
16B	.	.	.
*clefF4	*	*	*
16A#	.	4ryy	4r
16G#	.	.	.
16F#	.	.	.
16E#X	.	.	.
=17	=17	=17	=17
16D#	1ryy	8ryy	8r
16A#	.	.	.
16D#	.	8dd#	8ff#
16A#	.	.	.
.	.	8dd#Q	8ff#Q
16C##	.	4ee#	4gg#
16A#	.	.	.
16C##	.	.	.
16A#	.	.	.
16D#	.	8ryy	8r
16A#	.	.	.
16D#	.	8dd#	8ff#
16A#	.	.	.
.	.	8dd#Q	8ff#Q
16AA#	.	4cc##	4ee#X
16G#	.	.	.
16AA#	.	.	.
16G#	.	.	.
=18	=18	=18	=18
16BB	1ryy	1ryy	8r
16F#	.	.	.
16BB	.	.	8dd#
16F#	.	.	.
16AA#	.	.	16dd#t
16F#	.	.	16cc##
16AA#	.	.	8dd#
16F#	.	.	.
16BB	.	.	8r
16F#	.	.	.
16BB	.	.	8dd#
16F#	.	.	.
16FF##	.	.	16cc#X
16E	.	.	16b
16FF##	.	.	16cc#
16E	.	.	16aa#
=19	=19	=19	=19
*	*	*staff:2	*
16GG#	1ryy	8r	8b
16D#	.	.	.
16GG#	.	8d#	8r
16D#	.	.	.
16FF##	.	16d#t	8cc#
16D#	.	16c##	.
16FF##	.	8d#	8r
16D#	.	.	.
16GG#	.	8r	8b
16D#	.	.	.
16GG#	.	32e	8r
.	.	32d#	.
16D#	.	16c##X	.
16FF#X	.	8d#	8a#
16D#	.	.	.
16FF#	.	8dd#	8r
16D#	.	.	.
=20	=20	=20	=20
16EE#	1ryy	[2g#	8r
16D#	.	.	.
16C##	.	.	16ee#
16BB#	.	.	16dd#
16C##	.	.	8ee#
16G#	.	.	.
16E#X	.	.	8gg#
16G#	.	.	.
16AA#	.	8.g#]	8cc##
16A#	.	.	.
16BB#X	.	.	8ee#X
16A#	.	16f#	.
16C##X	.	16e#X	[4a#
16A#	.	16d#	.
16AA#	.	16e#	.
16G#	.	16c##X	.
=21	=21	=21	=21
16D#	1ryy	8d#	8a#]
16F#	.	.	.
16D#	.	16f#	16a#
16F#	.	16e#	16g#
16C#X	.	8f#	8a#
16A#	.	.	.
16C#	.	8a#	8ff#
16A#	.	.	.
16BB#	.	8r	8r
16G#	.	.	.
16BB#	.	8f#	8dd#
16G#	.	.	.
16GG#	.	8r	8r
16G#	.	.	.
16GG#	.	16e#X	8b#
16F#	.	16d#	.
=22	=22	=22	=22
16C#	1ryy	8r	8r
16E#	.	.	.
16C#	.	16e#	16g#
16E#	.	16d#	16f#
16BB#	.	8e#	8g#
16G#	.	.	.
16BB#	.	8g#	8ee#X
16G#	.	.	.
16AA#	.	8r	8r
16F#	.	.	.
16AA#	.	8e#X	8cc#
16F#	.	.	.
16FF#	.	8r	8r
16F#	.	.	.
16FF#	.	16d#	8a#
16E#X	.	16c##	.
=23	=23	=23	=23
16BB#	1ryy	8r	8r
16D#	.	.	.
16BB#	.	16f#	8g##
16D#	.	16e#	.
16AA#	.	16f#	8a#
16F#	.	16d#	.
16AA#	.	8b#	8dd#
16F#	.	.	.
16GG##	.	8r	8r
16E#	.	.	.
16GG##	.	16b#X	8dd#
16E#	.	16a#	.
16EE#X	.	16bn	8cc##
16E#	.	16g#X	.
16EE#	.	[8gg#	8bb
16D#	.	.	.
=24	=24	=24	=24
16C##	1ryy	16gg#]	4aa#
16AA#	.	32ff#	.
.	.	32ee#	.
16D#	.	8dd#	.
16F#	.	.	.
8A#	.	[4cc##	16r
.	.	.	16aa#
8AA#	.	.	16ee#X
.	.	.	16gg#
8.DD#	.	8cc##]	8gg#
.	.	8dd#	8ff##
32FF##	.	.	.
32AA#	.	.	.
4D#	.	4r	4r
=25:||:	=25:||:	=25:||:	=25:||:
*>B	*>B	*>B	*>B
8r	1ryy	1ryy	16dd#
.	.	.	16ee#
16D#	.	.	16ff##
16E#	.	.	16gg#
8F##	.	.	16aa#
.	.	.	16een
8A#	.	.	16dd#
.	.	.	16cc#
8d#	.	.	16b#
.	.	.	16cc#
8c#	.	.	16dd#
.	.	.	16an
8B#	.	.	16g#
.	.	.	16f#
8G#	.	.	16e
.	.	.	16d#
=26	=26	=26	=26
8c#	1ryy	1ryy	16e
.	.	.	16cc#
8C#	.	.	16e
.	.	.	16cc#
8BB	.	.	16e#
.	.	.	16ddn
8B	.	.	16e#
.	.	.	16dd
8An	.	.	16cc#
.	.	.	16an
8AAn	.	.	16g#
.	.	.	16f#
8GG#	.	.	16e#X
.	.	.	16ddn
8G#	.	.	16cc#
.	.	.	16b
=27	=27	=27	=27
8F#	1ryy	1ryy	16a#X
.	.	.	16b
8FF#	.	.	16cc#
.	.	.	16dd#X
8C#	.	.	16ee
.	.	.	16b
8E	.	.	16an
.	.	.	16g#
8AA#X	.	.	16f##
.	.	.	16g#
8C#	.	.	16a#
.	.	.	16e
8FF##	.	.	16d#
.	.	.	16c#
8D#	.	.	16B
.	.	.	16A#
=28	=28	=28	=28
8G#	1ryy	1ryy	16B
.	.	.	16g#
8GG#	.	.	16B
.	.	.	16g#
8FF#	.	.	16B#
.	.	.	16an
8F#	.	.	16B#
.	.	.	16a
8E	.	.	16g#
.	.	.	16e
8EE	.	.	16d#
.	.	.	16c#
8DD#	.	.	16B#X
.	.	.	16an
8D#	.	.	16g#
.	.	.	16f#
=29	=29	=29	=29
8C#	1ryy	1ryy	16e#
.	.	.	16f#
8CC#	.	.	16g#
.	.	.	16a#X
16r	.	.	16b
16c#	.	.	16ddn
16d#X	.	.	16cc#
16e#	.	.	16b
8f#	.	.	16a#X
.	.	.	16b
8F#	.	.	16cc#
.	.	.	16g#
16r	.	.	16f#
16F#	.	.	16en
16G#	.	.	16d#
16A#	.	.	16c#
=30	=30	=30	=30
8B	1ryy	1ryy	16d#
.	.	.	16e
8BB	.	.	16f#
.	.	.	16g#
16r	.	.	16an
16BB	.	.	16cc#
16C#	.	.	16b
16D#	.	.	16a
8E	.	.	16g#
.	.	.	16an
8EE	.	.	16b
.	.	.	16f#
16r	.	.	16e
16EE	.	.	16dn
16FF#	.	.	16c#
16GG#	.	.	16B
=31	=31	=31	=31
*	*	*staff:8	*
16AAn	1ryy	8ryy	8c#
16E	.	.	.
16AA	.	8c#	8an
16E	.	.	.
.	.	8c#Q	8aQ
16GG#	.	4dn	4b
16E	.	.	.
16GG#	.	.	.
16E	.	.	.
16AA	.	8ryy	8r
16E	.	.	.
16AA	.	8c#	8a
16E	.	.	.
16EE#	.	4B	4g#
16Dn	.	.	.
16EE#	.	.	.
16D	.	.	.
=32	=32	=32	=32
16FF#	1ryy	8ryy	8r
16C#	.	.	.
16FF#	.	16An	16f#
16C#	.	16B	16g#
16EEn	.	8c#	8an
16C#	.	.	.
16EE	.	8g#	8cc#
16C#	.	.	.
16DD#	.	8ryy	8r
16FF##	.	.	.
16AA#X	.	8f##	8ee
16C#	.	.	.
16BB	.	8g#	8dd#
16AA#	.	.	.
16GG#	.	8a#	8cc#
16FF##X	.	.	.
=33	=33	=33	=33
16GG#	1ryy	8ryy	8r
16D#	.	.	.
16GG#	.	16g#	16b
16D#	.	16f##	16a#
16FF#X	.	8g#	8b
16D#	.	.	.
16FF#	.	8a#	8dd#
16D#	.	.	.
16EE#	.	8ryy	8r
16GG##	.	.	.
16BB#	.	8g##	8ff#
16D#	.	.	.
16C#	.	8a#	8ee#
16BB#X	.	.	.
16AA#	.	8b#	8dd#
16GG##X	.	.	.
=34	=34	=34	=34
8AA#	1ryy	16cc##	16e#
.	.	16ryy	16bn
8BB#	.	8ryy	16a#
.	.	.	16g#
8C##	.	4ryy	16ee#X
.	.	.	16g#
8AA#	.	.	16ee#
.	.	.	16g#
8D#	.	2ryy	16f##
.	.	.	16een
8E#	.	.	16dd#
.	.	.	16cc#X
8F##	.	.	16aa#
.	.	.	16cc#
8D#	.	.	16aa#
.	.	.	16cc#
=35	=35	=35	=35
8G#	1ryy	1ryy	16b#
.	.	.	16an
8A#	.	.	16g#
.	.	.	16f#
8B#	.	.	16dd#
.	.	.	16f#
8G#	.	.	16dd#
.	.	.	16f#
8c#	.	.	16e#
.	.	.	16ddn
8d#	.	.	16cc#
.	.	.	16bn
8e#	.	.	16gg#
.	.	.	16b
8c#	.	.	16gg#
.	.	.	16b
=36	=36	=36	=36
4f#	1ryy	1ryy	16a#
.	.	.	16cc#
.	.	.	16dd#
.	.	.	16ee#
16r	.	.	8ff#
16e#	.	.	.
16d#	.	.	8a#
16c#	.	.	.
16B#	.	.	8g##
16A#	.	.	.
16B#	.	.	8ff#
16d#	.	.	.
16c##	.	.	8ee#X
16B#X	.	.	.
16c##	.	.	8g#X
16e#X	.	.	.
=37	=37	=37	=37
8e#	1ryy	1ryy	16f##
.	.	.	16a#
8d#	.	.	16b#
.	.	.	16cc##
16r	.	.	8dd#
16c#	.	.	.
16Bn	.	.	8f#X
16A#	.	.	.
16G#	.	.	8e#
16F##	.	.	.
16G#	.	.	8ddn
16B	.	.	.
16A#	.	.	8cc#X
16G#	.	.	.
16A#	.	.	8en
16c#	.	.	.
=38	=38	=38	=38
8c#	1ryy	1ryy	16d#
.	.	.	16f##
8B	.	.	16g#
.	.	.	16a#
16r	.	.	8b
16A#	.	.	.
16G#	.	.	8d#
16F#	.	.	.
16E#	.	.	8c##
16D#	.	.	.
16E#	.	.	8b
16G#	.	.	.
16F##	.	.	8a#
16E#X	.	.	.
16F##	.	.	8c#X
16A#	.	.	.
=39	=39	=39	=39
16D#	1ryy	1ryy	8B#
16C##	.	.	.
16D#	.	.	8an
16F#X	.	.	.
16En	.	.	8g#
16D#	.	.	.
16E	.	.	8Bn
16G#	.	.	.
16C##X	.	.	8A#
16BB#	.	.	.
16C##	.	.	8g#
16E#	.	.	.
16D#	.	.	8f##
16C##X	.	.	.
16D#	.	.	8An
16F#	.	.	.
=40	=40	=40	=40
*	*	*staff:2	*
16BB#	1ryy	4.ryy	8G#
16AA#	.	.	.
16BB#	.	.	8f#X
16D#	.	.	.
16C#	.	.	8e#
16BB#	.	.	.
16C#	.	8G#	8en
16E	.	.	.
16AA#	.	8G#	8e
16BBn	.	.	.
16C#	.	8F##	8d#
16BB	.	.	.
16C#	.	4ryy	4r
16F##	.	.	.
16A#	.	.	.
16C#	.	.	.
=41	=41	=41	=41
16BB	1ryy	1ryy	16g#
16AA#	.	.	16a#
16GG#	.	.	16b
16AA#	.	.	16cc#
16BB	.	.	16dd#
16C#	.	.	16b
16D#	.	.	16a#
16E	.	.	16g#
8E	.	.	16f##
.	.	.	16g#
8FF##	.	.	16a#
.	.	.	16e
16r	.	.	16d#
16c#	.	.	16r
16B	.	.	8r
16A#	.	.	.
=42	=42	=42	=42
16G#	1ryy	8ryy	8r
16d#	.	.	.
16G#	.	8b	8gg#
16d#	.	.	.
.	.	8bQ	8gg#Q
16F##	.	4cc#	4aa#
16d#	.	.	.
16F##	.	.	.
16d#	.	.	.
16G#	.	8ryy	8r
16d#	.	.	.
16G#	.	8b	8gg#
16d#	.	.	.
.	.	8bQ	8gg#Q
16D#	.	4a#	4ff##
16d#	.	.	.
16D#	.	.	.
16d#	.	.	.
=43	=43	=43	=43
16G#	1ryy	4.ryy	16r
16A#	.	.	16f##
16B	.	.	16g#
16c#	.	.	16a#
16d#	.	.	32b
.	.	.	32a#
16B	.	.	16g#
16A#	.	8cc#	8ee
16G#	.	.	.
16F##	.	8cc#	8ee
16G#	.	.	.
16A#	.	8f##X	8dd#
16E	.	.	.
16D#	.	4ryy	4r
16C#	.	.	.
16BB	.	.	.
16AA#	.	.	.
=44	=44	=44	=44
16GG#	1ryy	8ryy	8r
16G#	.	.	.
16GG#	.	8g#	8b
16G#	.	.	.
16F#	.	8an	8cc#
16d#	.	.	.
16F#	.	8g#	8b#
16d#	.	.	.
16E	.	8ryy	8r
16c#	.	.	.
16E	.	8g#	8cc#
16c#	.	.	.
16D#	.	8an	8ff#
16B#	.	.	.
16D#	.	8f#	8dd#
16B#	.	.	.
=45	=45	=45	=45
*	*staff:4	*	*
*	*clefG2	*	*
*	*k[f#c#g#d#a#]	*	*
16C#	2ryy	8ryy	8r
16c#	.	.	.
16C#	.	8g#	8ee
16c#	.	.	.
*clefG2	*	*	*
16Bn	.	8ddn	8ff#
16g#	.	.	.
16B	.	8cc#	8ee#
16g#	.	.	.
16A#	8ryy	8ryy	8r
16f##	.	.	.
16A#	8cc#	16een	8aa#
16f##	.	16dd#	.
16G#	8cc#	8ee	8aa#
16g#	.	.	.
16G#	8cc#	8ee	8aa#
16g#	.	.	.
=46	=46	=46	=46
16f##	4cc#	4ee	4aa#
16g#	.	.	.
16a#	.	.	.
16e	.	.	.
*clefF4	*	*	*
16d#	4ryy	2.ryy	16r
16c#	.	.	16ee
16B	.	.	16dd#
16A#	.	.	16cc#
8G#	2ryy	.	16b
.	.	.	16cc#
8B	.	.	16dd#
.	.	.	16g#
8c#	.	.	16b
.	.	.	16a#
8d#	.	.	16g#
.	.	.	16f##
=47	=47	=47	=47
*	*	*staff:3	*
*	*	*clefF4	*
8e	1ryy	4ryy	16g#
.	.	.	16b
8E	.	.	16g#
.	.	.	16b
8r	.	8r	16f#X
.	.	.	16dd#
8BB# 8D#	.	8An	16f#
.	.	.	16dd#
8r	.	8r	16e#
.	.	.	16cc#
16C#	.	8G#	16e#
16D#	.	.	16cc#
8E#	.	8G#	16c#
.	.	.	16b
8E#	.	8G#	16c#
.	.	.	16b
=48	=48	=48	=48
8En	1ryy	4F#	16f#
.	.	.	16a#
8FF#	.	.	16f#
.	.	.	16a#
8r	.	8r	16en
.	.	.	16cc#
8AA# 8C#	.	8Gn	16e
.	.	.	16cc#
8r	.	8r	16d#
.	.	.	16b
16BB	.	8F#	16d#
16C#	.	.	16b
8D#	.	8F#	16B
.	.	.	16a#
8D#	.	8F#	16B
.	.	.	16a#
=49	=49	=49	=49
8D#	1ryy	4E	16e
.	.	.	16g#
8EE	.	.	16e
.	.	.	16g#
8r	.	8r	16d#
.	.	.	16b
8GG# 8BB	.	8F#	16d#
.	.	.	16b
8r	.	8r	16c##
.	.	.	16a#
16AA#	.	8E#	16c##
16BB#	.	.	16a#
8C##	.	8E#	16A#
.	.	.	16g#
[8C#X	.	8En	16A#
.	.	.	16g#
=50	=50	=50	=50
*	*staff:2	*staff:2	*
*	*	*clefG2	*
8C#]	16r	8D#	16f##
.	[8.d#	.	16d#
16BB	.	[8g#	16g#
16C#	.	.	16a#
8D#	16d#]	8g#]	8b
.	8d#	.	.
8DD#	.	8f##X	[8a#
.	[16c#	.	.
8.GG#	8c#]	8f##	8a#]
.	8B	8d#	8g#
32BB	.	.	.
32D#	.	.	.
4G#	4r	4ryy	4r
==:|	==:|	==:|	==:|
*-	*-	*-	*-
!!!AFR:  prelude
!!!EFL:  83/96
!!!END:  1994/02/13/
!!!VID:  3139031209 Bach, BWV 887-01
!!!AST:  Baroque
!!!OCY:  Deutschland
!!!ODT:  1742///
!!!PDT:  1801///
!!!EED:  Walter Hewlett
!!!ENC:  Walter Hewlett
!!!YOR:  Bach Gesellschaft Edition xiv
!!!AFT:  enhanced SCORE
!!!RDT:  2011/10/07/ by Andreas Kornstaedt using massScr2hmd
!!!SCA1: Thematisch-systematisches Verzeichnis der musikalischen Werke 
!!!SCA2: Johann Sebastian Bach: Bach-Werke-Verzeichnis (Schmieder)
!!!YEC1: Copyright 1994, 2000 Center for Computer Assisted Research 
!!!YEC2: in the Humanities
!!!YEM1: Rights to all derivative editions reserved.
!!!YEM2: Refer to licensing agreement for further details.
!!!YEN:  United States of America
!!!ref:  @{OTL}, @{SCT}
!!muse2ps: T^@{OTL} @{ONM} in @{OKY}^C^J.S. Bach\n@{SCT}-@{OMV}^
!!muse2ps: u^@{OPR@ENG}, @{OVM@ENG}^j
